X:1
T:Title
%%score ( 1 2 ) { 3 | 4 }
L:1/8
Q:1/4=90
M:6/8
K:F
V:1 treble nm="Grand Piano, Soprano"
V:2 treble 
V:3 bass nm="Choir Pad, Send Me, W. T. Morris"
V:4 bass 
V:1
 [CF]/[CG]<[FA]_A/ [F=A]BA | [F_A] [F=A]2- [FA] [CF]2 | [CF]/[FA]<[Fc][Fc]/ [Fc][Fd][Fc] | %3
w: By~Mrs.~W.~T~Morris * * * * * *|||
 [FA] [EG]2- [EG]2- [EG]/ z/ | F/[FG]<[FA]_A/ [F=A]BA | [EB] [Fc]2- [Fc] [Fd]2 | %6
w: |||
 [Fd]/[Fd]<[Fc][FA]/ [FG] [FA]2 | [CG] [CF]2- [CF]2- [CF]/ z/ | [Fc] [Fd]2 [Fd][FB][Fc] | %9
w: |||
 [Fd] [Fc]2- [Fc] [FA]2 | [FA] [Fc]2 [Fc][Fd][Fc] | [FA] [EG]2- [EG]2- [EG]/ z/ | %12
w: |||
 A/B<[Fc]B/ [FA][FA][FG] | F [FB]2- [FB] [Fd]2 | [Fd][Fc]>[FA] [EB] [FA]2 | %15
w: |||
 [CG] [CF]2- [CF]2- [CF]/ z/ | z [Fc]>[FB] [FA][Fc][Ec] | [Fc] [Fd]2- [Fd] [Fd]2 | %18
w: |||
 [Fd][Gd]>[Gd] [Gd][Gd][Ge] | [G=Bf] [_Be]2- [Be]2- [Be]/ z/ | [Be][Af]>[Fe] [Fd][Fc][EB] | %21
w: |||
 [FA] [FG]2- [FG] [Fd]2 | [Fd][Fc]>[FA] [EB] [FA]2 | [CG] [CF]2- [CF]3- | [CF]3 z3 |] %25
w: ||||
V:2
 z3 z F2 | x6 | x6 | x6 | z3 z E2 | x6 | x6 | x6 | x6 | x6 | x6 | x6 | .F3 z3 | x6 | x6 | x6 | x6 | %17
 x6 | x6 | x6 | x6 | x6 | x6 | x6 | x6 |] %25
V:3
 A,/B,<C=B,/ C[K:treble]DC | =B, C2- C[K:bass] A,2 | A,/C<A,A,/ A,B,A, | C C2- C2- C/ z/ | %4
 A,/B,<C=B,/ C C2 | C C2- C[K:bass] B,2 | B,/B,<A,C/ =B, C2 | B, A,2- A,2- A,/ z/ | A, B,2 B,DC | %9
 B, A,2- A, C2 | C A,2 A,B,A, | C C2- C2- C/ z/ | C/G,<A,D/ C_EE | _E D2- D[K:bass] B,2 | %14
 B,A,>C D C2 | B, A,2- A,2- A,/ z/ | z A,>[K:treble]D CA,B, | C[K:bass] B,2- B,/ z/ B,2 | %18
 B,=B,>B, B,B,[K:treble]C | D C2- C2- C/ z/ | CC>C B,A,C | C D2- D[K:bass] B,2 | B,A,>C D C2 | %23
 B, A,2- A,3- | A,3 z3 |] %25
V:4
 F,/F,/ F,2 F, F,2 | F, F,2- F, F,2 | F,F,>F, F,F,F, | F, C,2- C,2- C,/ z/ | F,/F,/ F,2 F, G,2 | %5
 G, A,2- A, z z | B,,/B,,<C,C,/ D, C,2 | C, F,2- F,2- F,/ z/ | F, B,,2 B,,B,,B,, | %9
 B,, F,2- F, F,2 | F, F,2 F,F,F, | F, C,2- C,2- C,/ z/ | F, F,2 F,F,G, | A, B,2- B, B,,2 | %14
 B,,C,>C, C, C,2 | C, [F,,F,]2- [F,,F,]2- [F,,F,]/ z/ | z F,>F, F,F,G, | .A,3 z3 | z G,>G, G,G,G, | %19
 G, C,2- C,2- C,/ z/ | z F,>F, F,F,G, | A, B,2- B, B,,2 | B,,C,>C, C, C,2 | %23
 C, [F,,F,]2- [F,,F,]3- | [F,,F,]3 z3 |] %25

